priv/static/svgs/icons_new/sport-audl.svg

<svg width="32" height="32" viewBox="0 0 32 32" fill="none" xmlns="http://www.w3.org/2000/svg">
<path d="M11.1819 18.5996C14.3414 21.3902 18.0386 23.2431 21.0734 23.5579M15.578 13.6135L14.8189 14.9398C14.7755 15.0164 14.7699 15.107 14.8035 15.1878C14.8372 15.2686 14.9072 15.3285 14.9926 15.3522L17.267 15.9666L19.166 18.1873C19.2206 18.2527 19.3018 18.2876 19.3845 18.2876C19.4167 18.2876 19.4503 18.282 19.4825 18.2709C19.5945 18.2305 19.6716 18.1246 19.6716 18.0062L19.6856 16.2522L21.4586 16.2048C21.5776 16.202 21.684 16.1254 21.7232 16.0125C21.7611 15.9011 21.726 15.7771 21.6322 15.7019L19.3495 13.8671L18.6842 11.6296C18.659 11.546 18.596 11.4778 18.5148 11.4457C18.4322 11.4137 18.3397 11.4207 18.2641 11.4652L16.9379 12.2412L14.6047 10.9414C14.4912 10.8787 14.3498 10.8982 14.2588 10.9902C14.1677 11.0821 14.1509 11.2214 14.2167 11.3329L15.5766 13.6135H15.578ZM26.44 17.3625C25.174 14.9036 22.915 12.4349 20.0805 10.4106C19.9979 10.3521 19.9152 10.2936 19.8312 10.2365C19.7766 10.1975 19.7234 10.1571 19.6688 10.1181C17.8678 8.83356 15.9463 7.86948 14.1481 7.31779C12.5866 6.78699 11.0755 6.5 9.72545 6.5C7.68917 6.49861 6.14725 7.13529 5.26776 8.33898C4.15159 9.86728 4.25522 12.1047 5.56046 14.6361C6.82648 17.095 9.08543 19.5637 11.92 21.588C15.3525 24.0372 19.2234 25.5 22.2736 25.5C24.3113 25.5 25.8532 24.8633 26.7327 23.6596C27.8489 22.1313 27.7439 19.8939 26.44 17.3625ZM24.7847 15.589C23.8632 13.8002 22.2204 12.0044 20.1575 10.5318C20.0973 10.4886 20.0371 10.4468 19.9769 10.405C19.9377 10.3758 19.8984 10.3465 19.8592 10.3187C18.5498 9.38386 17.1507 8.68309 15.8441 8.28186C14.7083 7.89456 13.6089 7.68698 12.6258 7.68698C11.1441 7.68698 10.0223 8.14951 9.38233 9.02581C8.57006 10.1376 8.64569 11.7648 9.5952 13.6079C10.5167 15.3968 12.1595 17.1926 14.2223 18.6651C16.7194 20.447 19.5357 21.5114 21.7555 21.5114C23.2372 21.5114 24.3589 21.0488 24.9989 20.1725C25.8112 19.0608 25.7356 17.4336 24.7861 15.5904L24.7847 15.589Z" stroke="black" stroke-miterlimit="10"/>
</svg>

<svg width="32" height="32" viewBox="0 0 32 32" fill="none" xmlns="http://www.w3.org/2000/svg">
  <symbol id="item" viewBox="0 0 32 32" stroke-width="1" fill="none">
    <path d="M11.182 18.6c3.16 2.79 6.857 4.643 9.891 4.958m-5.495-9.944-.76 1.326a.281.281 0 0 0 .175.412l2.274.615 1.899 2.22a.284.284 0 0 0 .317.084.284.284 0 0 0 .189-.265l.014-1.754 1.773-.047a.288.288 0 0 0 .264-.192.281.281 0 0 0-.09-.311l-2.284-1.835-.665-2.237a.288.288 0 0 0-.42-.165l-1.326.776-2.333-1.3a.29.29 0 0 0-.346.05.281.281 0 0 0-.042.342l1.36 2.28h.001Zm10.862 3.748c-1.266-2.458-3.525-4.927-6.36-6.951a15.81 15.81 0 0 0-.249-.175l-.162-.118c-1.801-1.284-3.723-2.249-5.52-2.8-1.562-.531-3.073-.818-4.424-.818-2.036-.001-3.578.635-4.457 1.839-1.116 1.528-1.013 3.766.292 6.297 1.266 2.459 3.525 4.928 6.36 6.952 3.432 2.45 7.303 3.912 10.354 3.912 2.037 0 3.58-.637 4.459-1.84 1.116-1.529 1.01-3.766-.293-6.297Zm-1.655-1.773c-.922-1.789-2.565-3.585-4.628-5.057l-.18-.127-.118-.086c-1.31-.935-2.708-1.636-4.015-2.037-1.136-.387-2.235-.595-3.218-.595-1.482 0-2.604.463-3.244 1.339-.812 1.112-.736 2.739.213 4.582.922 1.789 2.564 3.585 4.627 5.057 2.497 1.782 5.314 2.846 7.534 2.846 1.481 0 2.603-.462 3.243-1.338.812-1.112.737-2.74-.213-4.583l-.001-.001Z" stroke="currentColor" stroke-miterlimit="10"/>
  </symbol>
</svg>
